papirus/16x16/apps/mendeley-desktop.svg

<svg height="16" viewBox="0 0 16 16" width="16" xmlns="http://www.w3.org/2000/svg"><rect fill="#be212e" height="16" rx=".84210533" width="16"/><path d="m4.6074219 4c-.5222552.0148003-1.025686.2297338-1.4121094.5546875-.3927167.3302442-.673449.7836655-.7304687 1.2714844-.028511.2439273.0002873.4949918.0878906.7265625.087593.2316075.2349564.4445868.4316406.609375.2319694.1943517.5226446.3167253.7890625.46875.1332093.076031.2587998.161039.3691406.2636718.1103408.102632.2033859.2243989.2539063.3613282.044949.1218346.0552262.2515589.0351562.3789062-.02007.127384-.0701964.2505258-.1445312.359375-.1486706.217733-.3892829.3761758-.6523438.4609375-.3051162.0983038-.6414559.102842-.9355468.2265625-.232716.0978974-.4286966.2689666-.5507813.4765624-.1220834.207595-.1702987.452822-.140625.6875.034866.275746.1784241.535748.3925781.730469.2141537.194721.4979229.323316.7949219.365234.4355142.06145.9021578-.06845 1.21875-.351562.1582939-.141554.2782969-.31796.3457031-.511719.067405-.193796.0789553-.404022.0351563-.603516-.0334423-.15232-.095258-.296558-.15625-.441406-.0609905-.1448825-.1200618-.292429-.1347657-.4472655-.0259608-.2733787.0866971-.5520297.2832032-.7578125.1965079-.2057829.4699041-.3405277.7597656-.4003906.1870201-.038625.3833869-.0475152.5722656-.0175782.1888799.0299691.3723452.0985244.5253906.2050782.1530454.1065542.2758023.2504503.34375.4160156.0679501.1655664.0795737.3516262.0253907.5214844-.055497.173964-.1760421.3238745-.296875.4667966-.1208313.142921-.2465561.286293-.3183594.455078-.079185.186137-.0874571.396196-.0332031.589844.054255.19361.1681925.371593.3183594.515625.1661257.159352.3786246.278486.6074218.34375.228799.0653.4617157.076172.7011719.076172.2394574 0 .4879986-.010872.7167969-.076172.2287973-.06527.4412954-.184399.6074218-.34375.1501665-.144032.2641062-.322014.3183594-.515625.05425-.193647.0459769-.403708-.0332031-.589844-.0718006-.168785-.197527-.312156-.3183594-.455078-.1208353-.1429183-.2413829-.2928326-.296875-.4667966-.0541833-.1698582-.0425563-.355918.0253907-.5214844.0679471-.1655653.1907035-.3094614.34375-.4160156.1530453-.1065542.3365112-.1751094.5253906-.2050782.1888786-.029937.3852466-.0210418.5722656.0175782.289862.059863.563258.1946077.759766.4003906.196506.2057828.309165.4844338.283203.7578125-.01469.1548365-.073782.3023816-.134766.4472655-.06099.144849-.122804.289087-.15625.441406-.0438.199493-.032254.40972.035156.603516.0674.193758.18741.370164.345704.511719.316591.283108.783236.413016 1.21875.351562.297-.04192.580769-.170512.794921-.365234.214156-.19472.357711-.454723.392579-.730469.029669-.234679-.01854-.479905-.140626-.6875-.12209-.2075951-.318064-.378665-.550781-.4765624-.294091-.1237205-.630432-.1282587-.935547-.2265625-.263061-.084762-.503673-.2432045-.652343-.4609375-.07434-.1088492-.124463-.231991-.144532-.359375-.02007-.1273473-.009813-.2570716.035157-.3789062.05052-.1369293.143563-.2586957.253906-.3613282.110333-.1026328.235929-.1876405.36914-.2636718.26642-.1520247.557094-.2743983.789063-.46875.196686-.1647882.344048-.3777675.431641-.609375.08758-.2315707.116389-.4826352.08789-.7265625-.057022-.4878187-.337755-.9412402-.730468-1.2714844-.386425-.3249537-.889853-.5398877-1.41211-.5546875-.261127-.0074-.524918.035081-.765625.1289062-.240705.0938271-.46044.2397548-.626953.4257813-.1908941.2132561-.3100551.4730367-.4199219.7304687-.1098673.257469-.2125459.5198725-.3789062.75-.2743361.3794903-.7072758.7402344-1.2011719.7402344-.4938955 0-.9268333-.3607457-1.2011719-.7402344-.1663624-.2301275-.2690395-.4925309-.3789062-.75-.1098668-.257432-.2290267-.5172121-.4199219-.7304687-.1665117-.1860265-.3862471-.3319544-.6269531-.4257813-.2407054-.0938271-.5044978-.1363057-.765625-.1289062zm3.3925781 3.5a.50000427.50000434 0 0 1  .5.5.50000427.50000434 0 0 1 -.5.5.50000427.50000434 0 0 1 -.5-.5.50000427.50000434 0 0 1  .5-.5z" fill="#fff"/></svg>

<?xml version="1.0" encoding="UTF-8" standalone="no"?>
<svg
   xmlns:dc="http://purl.org/dc/elements/1.1/"
   xmlns:cc="http://creativecommons.org/ns#"
   xmlns:rdf="http://www.w3.org/1999/02/22-rdf-syntax-ns#"
   xmlns:svg="http://www.w3.org/2000/svg"
   xmlns="http://www.w3.org/2000/svg"
   xmlns:sodipodi="http://sodipodi.sourceforge.net/DTD/sodipodi-0.dtd"
   xmlns:inkscape="http://www.inkscape.org/namespaces/inkscape"
   version="1.1"
   id="svg4261"
   viewBox="0 0 16 16"
   height="16"
   width="16"
   inkscape:version="0.91 r13725"
   sodipodi:docname="mendeley-desktop.svg">
  <sodipodi:namedview
     pagecolor="#ffffff"
     bordercolor="#666666"
     borderopacity="1"
     objecttolerance="10"
     gridtolerance="10"
     guidetolerance="10"
     inkscape:pageopacity="0"
     inkscape:pageshadow="2"
     inkscape:window-width="1600"
     inkscape:window-height="849"
     id="namedview13"
     showgrid="false"
     inkscape:zoom="1"
     inkscape:cx="12.403086"
     inkscape:cy="9.7752489"
     inkscape:window-x="0"
     inkscape:window-y="0"
     inkscape:window-maximized="1"
     inkscape:current-layer="svg4261" />
  <defs
     id="defs4263" />
  <metadata
     id="metadata4266">
    <rdf:RDF>
      <cc:Work
         rdf:about="">
        <dc:format>image/svg+xml</dc:format>
        <dc:type
           rdf:resource="http://purl.org/dc/dcmitype/StillImage" />
        <dc:title></dc:title>
      </cc:Work>
    </rdf:RDF>
  </metadata>
  <rect
     style="opacity:1;fill:#be212e;fill-opacity:1;stroke:none;stroke-width:0.1;stroke-miterlimit:4;stroke-dasharray:none;stroke-opacity:1"
     id="rect5010"
     width="16"
     height="16"
     x="0"
     y="0"
     rx="0.84210533" />
  <path
     style="opacity:1;fill:#ffffff;fill-opacity:1;stroke:none;stroke-width:0.07407407;stroke-miterlimit:4;stroke-dasharray:none;stroke-opacity:1"
     d="M 4.6074219 4 C 4.0851667 4.0148003 3.5817359 4.2297338 3.1953125 4.5546875 C 2.8025958 4.8849317 2.5218635 5.338353 2.4648438 5.8261719 C 2.4363328 6.0700992 2.4651311 6.3211637 2.5527344 6.5527344 C 2.6403274 6.7843419 2.7876908 6.9973212 2.984375 7.1621094 C 3.2163444 7.3564611 3.5070196 7.4788347 3.7734375 7.6308594 C 3.9066468 7.7068904 4.0322373 7.7918984 4.1425781 7.8945312 C 4.2529189 7.9971632 4.345964 8.1189301 4.3964844 8.2558594 C 4.4414334 8.377694 4.4517106 8.5074183 4.4316406 8.6347656 C 4.4115706 8.7621496 4.3614442 8.8852914 4.2871094 8.9941406 C 4.1384388 9.2118736 3.8978265 9.3703164 3.6347656 9.4550781 C 3.3296494 9.5533819 2.9933097 9.5579201 2.6992188 9.6816406 C 2.4665028 9.779538 2.2705222 9.9506072 2.1484375 10.158203 C 2.0263541 10.365798 1.9781388 10.611025 2.0078125 10.845703 C 2.0426785 11.121449 2.1862366 11.381451 2.4003906 11.576172 C 2.6145443 11.770893 2.8983135 11.899488 3.1953125 11.941406 C 3.6308267 12.002856 4.0974703 11.872956 4.4140625 11.589844 C 4.5723564 11.44829 4.6923594 11.271884 4.7597656 11.078125 C 4.8271706 10.884329 4.8387209 10.674103 4.7949219 10.474609 C 4.7614796 10.322289 4.6996639 10.178051 4.6386719 10.033203 C 4.5776814 9.8883205 4.5186101 9.740774 4.5039062 9.5859375 C 4.4779454 9.3125588 4.5906033 9.0339078 4.7871094 8.828125 C 4.9836173 8.6223421 5.2570135 8.4875973 5.546875 8.4277344 C 5.7338951 8.3891094 5.9302619 8.3802192 6.1191406 8.4101562 C 6.3080205 8.4401253 6.4914858 8.5086806 6.6445312 8.6152344 C 6.7975766 8.7217886 6.9203335 8.8656847 6.9882812 9.03125 C 7.0562313 9.1968164 7.0678549 9.3828762 7.0136719 9.5527344 C 6.9581749 9.7266984 6.8376298 9.8766089 6.7167969 10.019531 C 6.5959656 10.162452 6.4702408 10.305824 6.3984375 10.474609 C 6.3192525 10.660746 6.3109804 10.870805 6.3652344 11.064453 C 6.4194894 11.258063 6.5334269 11.436046 6.6835938 11.580078 C 6.8497195 11.73943 7.0622184 11.858564 7.2910156 11.923828 C 7.5198146 11.989128 7.7527313 12 7.9921875 12 C 8.2316449 12 8.4801861 11.989128 8.7089844 11.923828 C 8.9377817 11.858558 9.1502798 11.739429 9.3164062 11.580078 C 9.4665727 11.436046 9.5805124 11.258064 9.6347656 11.064453 C 9.6890156 10.870806 9.6807425 10.660745 9.6015625 10.474609 C 9.5297619 10.305824 9.4040355 10.162453 9.2832031 10.019531 C 9.1623678 9.8766127 9.0418202 9.7266984 8.9863281 9.5527344 C 8.9321448 9.3828762 8.9437718 9.1968164 9.0117188 9.03125 C 9.0796659 8.8656847 9.2024223 8.7217886 9.3554688 8.6152344 C 9.5085141 8.5086802 9.69198 8.440125 9.8808594 8.4101562 C 10.069738 8.3802192 10.266106 8.3891144 10.453125 8.4277344 C 10.742987 8.4875974 11.016383 8.6223421 11.212891 8.828125 C 11.409397 9.0339078 11.522056 9.3125588 11.496094 9.5859375 C 11.481404 9.740774 11.422312 9.8883191 11.361328 10.033203 C 11.300338 10.178052 11.238524 10.32229 11.205078 10.474609 C 11.161278 10.674102 11.172824 10.884329 11.240234 11.078125 C 11.307634 11.271883 11.427644 11.448289 11.585938 11.589844 C 11.902529 11.872952 12.369174 12.00286 12.804688 11.941406 C 13.101688 11.899486 13.385457 11.770894 13.599609 11.576172 C 13.813765 11.381452 13.95732 11.121449 13.992188 10.845703 C 14.021857 10.611024 13.973648 10.365798 13.851562 10.158203 C 13.729472 9.9506079 13.533498 9.779538 13.300781 9.6816406 C 13.00669 9.5579201 12.670349 9.5533819 12.365234 9.4550781 C 12.102173 9.3703161 11.861561 9.2118736 11.712891 8.9941406 C 11.638551 8.8852914 11.588428 8.7621496 11.568359 8.6347656 C 11.548289 8.5074183 11.558546 8.377694 11.603516 8.2558594 C 11.654036 8.1189301 11.747079 7.9971637 11.857422 7.8945312 C 11.967755 7.7918984 12.093351 7.7068907 12.226562 7.6308594 C 12.492982 7.4788347 12.783656 7.3564611 13.015625 7.1621094 C 13.212311 6.9973212 13.359673 6.7843419 13.447266 6.5527344 C 13.534846 6.3211637 13.563655 6.0700992 13.535156 5.8261719 C 13.478134 5.3383532 13.197401 4.8849317 12.804688 4.5546875 C 12.418263 4.2297338 11.914835 4.0147998 11.392578 4 C 11.131451 3.9926 10.86766 4.035081 10.626953 4.1289062 C 10.386248 4.2227333 10.166513 4.368661 10 4.5546875 C 9.8091059 4.7679436 9.6899449 5.0277242 9.5800781 5.2851562 C 9.4702108 5.5426252 9.3675322 5.8050287 9.2011719 6.0351562 C 8.9268358 6.4146465 8.4938961 6.7753906 8 6.7753906 C 7.5061045 6.7753906 7.0731667 6.4146449 6.7988281 6.0351562 C 6.6324657 5.8050287 6.5297886 5.5426253 6.4199219 5.2851562 C 6.3100551 5.0277242 6.1908952 4.7679441 6 4.5546875 C 5.8334883 4.368661 5.6137529 4.2227331 5.3730469 4.1289062 C 5.1323415 4.0350791 4.8685491 3.9926005 4.6074219 4 z M 8 7.5 A 0.50000427 0.50000434 0 0 1 8.5 8 A 0.50000427 0.50000434 0 0 1 8 8.5 A 0.50000427 0.50000434 0 0 1 7.5 8 A 0.50000427 0.50000434 0 0 1 8 7.5 z "
     id="path4369" />
</svg>
